packages/core/src/svgs/wam.svg

<svg width="24" height="24" viewBox="0 0 24 24" fill="none" xmlns="http://www.w3.org/2000/svg">
<g clip-path="url(#clip0_31_20619)">
<path d="M0 0H24V24H0V0Z" fill="#F0F3FA"/>
<path d="M11.9999 18.4284C15.5503 18.4284 18.4284 15.5503 18.4284 11.9999C18.4284 8.44946 15.5503 5.57129 11.9999 5.57129C8.44946 5.57129 5.57129 8.44946 5.57129 11.9999C5.57129 15.5503 8.44946 18.4284 11.9999 18.4284Z" fill="#FFCD00"/>
<path d="M10.8301 17.6873C12.6488 17.6873 14.3929 16.9648 15.6789 15.6789C16.9648 14.3929 17.6873 12.6488 17.6873 10.8301C17.6873 9.15871 16.8559 7.61585 15.8573 6.42871C17.3573 7.68443 18.5444 9.57443 18.5444 11.6873C18.5444 13.5059 17.822 15.2501 16.536 16.536C15.2501 17.822 13.5059 18.5444 11.6873 18.5444C9.57443 18.5444 7.68443 17.3573 6.42871 15.8573C7.62014 16.8559 9.15443 17.6873 10.8301 17.6873Z" fill="#FCB501"/>
<path d="M14.0315 15.4286H10.2129L9.87009 14.4857C9.82723 14.37 9.91294 14.2457 10.0415 14.2286L14.3315 13.7143C14.4858 13.6971 14.6101 13.8343 14.5587 13.9714L14.0315 15.4286ZM10.7144 11.1429L9.85723 9H8.35723C8.32334 9.00025 8.28999 9.00854 8.25992 9.02418C8.22985 9.03982 8.20393 9.06237 8.18427 9.08998C8.16461 9.11759 8.15178 9.14946 8.14683 9.18299C8.14188 9.21652 8.14495 9.25075 8.1558 9.28286L9.21437 12.8571L15.0001 12L15.8444 9.28714C15.8561 9.25479 15.8598 9.2201 15.8553 9.186C15.8507 9.15189 15.838 9.11939 15.8183 9.09122C15.7985 9.06306 15.7723 9.04007 15.7418 9.02419C15.7112 9.00831 15.6773 9.00001 15.6429 9H14.1429L13.2858 11.1429L12.7372 9.15429C12.7242 9.10978 12.6972 9.07068 12.6601 9.04286C12.623 9.01504 12.5779 9 12.5315 9H11.5715C11.5252 9 11.48 9.01504 11.4429 9.04286C11.4059 9.07068 11.3788 9.10978 11.3658 9.15429L10.7144 11.1429Z" fill="#221E20"/>
<path d="M10.2855 13.9284C10.5222 13.9284 10.7141 13.7366 10.7141 13.4999C10.7141 13.2632 10.5222 13.0713 10.2855 13.0713C10.0488 13.0713 9.85693 13.2632 9.85693 13.4999C9.85693 13.7366 10.0488 13.9284 10.2855 13.9284Z" fill="#221E20"/>
<path d="M12.6555 13.1701C12.6555 13.2838 12.6103 13.3928 12.53 13.4732C12.4496 13.5536 12.3406 13.5987 12.2269 13.5987C12.1132 13.5987 12.0042 13.5536 11.9239 13.4732C11.8435 13.3928 11.7983 13.2838 11.7983 13.1701C11.7983 13.0565 11.8435 12.9475 11.9239 12.8671C12.0042 12.7867 12.1132 12.7416 12.2269 12.7416C12.3406 12.7416 12.4496 12.7867 12.53 12.8671C12.6103 12.9475 12.6555 13.0565 12.6555 13.1701ZM14.5712 12.8573C14.5712 12.9709 14.526 13.08 14.4457 13.1603C14.3653 13.2407 14.2563 13.2859 14.1426 13.2859C14.029 13.2859 13.92 13.2407 13.8396 13.1603C13.7592 13.08 13.7141 12.9709 13.7141 12.8573C13.7141 12.7436 13.7592 12.6346 13.8396 12.5542C13.92 12.4739 14.029 12.4287 14.1426 12.4287C14.2563 12.4287 14.3653 12.4739 14.4457 12.5542C14.526 12.6346 14.5712 12.7436 14.5712 12.8573Z" fill="#221E20"/>
<path d="M17.9999 12.0001C17.999 12.8958 17.7974 13.78 17.4102 14.5876C17.0229 15.3953 16.4597 16.106 15.7619 16.6676C15.0641 17.2292 14.2495 17.6275 13.3777 17.8332C12.5059 18.0388 11.5991 18.0467 10.7239 17.8562C9.84869 17.6657 9.02722 17.2817 8.31979 16.7323C7.61235 16.1829 7.03689 15.4821 6.63564 14.6813C6.23439 13.8805 6.01753 13 6.00097 12.1044C5.98441 11.2088 6.16858 10.3209 6.53994 9.50584C6.62137 9.33441 6.59137 9.12441 6.45423 8.99156C6.2528 8.78584 5.90995 8.83298 5.78995 9.09441C5.11093 10.5461 4.96182 12.1897 5.36853 13.7399C5.77523 15.29 6.71205 16.6488 8.01628 17.5801C9.32051 18.5115 10.9098 18.9566 12.508 18.8381C14.1062 18.7197 15.6125 18.0452 16.7652 16.9317C17.9179 15.8183 18.6442 14.3363 18.8179 12.7431C18.9917 11.15 18.6019 9.54624 17.7163 8.21053C16.8307 6.87482 15.5052 5.89149 13.9701 5.43133C12.4349 4.97116 10.7871 5.06324 9.3128 5.69156C9.25771 5.71615 9.20871 5.75256 9.16926 5.79821C9.12981 5.84385 9.10088 5.89761 9.08453 5.95568C9.06817 6.01375 9.06478 6.07471 9.07461 6.13423C9.08443 6.19376 9.10722 6.25039 9.14137 6.30013C9.26137 6.48013 9.49709 6.54013 9.69852 6.4587C10.6102 6.08003 11.6013 5.93217 12.5838 6.02824C13.5664 6.12432 14.51 6.46134 15.3311 7.00945C16.1522 7.55755 16.8254 8.29979 17.2909 9.17035C17.7565 10.0409 18 11.0129 17.9999 12.0001Z" fill="#2E2720"/>
<path d="M8.27166 7.29874C8.45595 7.15302 8.50738 6.89159 8.37881 6.69874C8.34871 6.65087 8.30897 6.60979 8.26212 6.57813C8.21528 6.54646 8.16235 6.5249 8.10671 6.51482C8.05107 6.50474 7.99394 6.50636 7.93896 6.51958C7.88398 6.5328 7.83236 6.55732 7.78738 6.59159C7.41485 6.88156 7.07306 7.20899 6.76738 7.56874C6.70175 7.64769 6.66838 7.74853 6.67394 7.85105C6.6795 7.95357 6.72359 8.0502 6.79738 8.12159C6.98166 8.30588 7.28595 8.28016 7.45738 8.07874C7.70166 7.79588 7.97595 7.53445 8.27166 7.29874Z" fill="#2E2720"/>
</g>
<defs>
<clipPath id="clip0_31_20619">
<rect width="24" height="24" fill="white"/>
</clipPath>
</defs>
</svg>

<svg xmlns="http://www.w3.org/2000/svg" width="24" height="24" fill="none" viewBox="0 0 24 24"><g clip-path="url(#a)"><path fill="#F0F3FA" d="M0 0h24v24H0z"/><path fill="#FFCD00" d="M12 18.428a6.428 6.428 0 1 0 0-12.857 6.428 6.428 0 0 0 0 12.857"/><path fill="#FCB501" d="M10.83 17.687a6.857 6.857 0 0 0 6.857-6.857c0-1.671-.831-3.214-1.83-4.401 1.5 1.255 2.687 3.145 2.687 5.258a6.857 6.857 0 0 1-6.857 6.857c-2.113 0-4.003-1.187-5.258-2.687 1.191.999 2.725 1.83 4.401 1.83"/><path fill="#221E20" d="M14.032 15.429h-3.82l-.342-.943c-.043-.116.043-.24.172-.257l4.29-.515c.154-.017.278.12.227.257zm-3.318-4.286L9.857 9h-1.5a.214.214 0 0 0-.201.283l1.058 3.574L15 12l.844-2.713A.215.215 0 0 0 15.643 9h-1.5l-.857 2.143-.549-1.989A.214.214 0 0 0 12.531 9h-.96a.215.215 0 0 0-.205.154zM10.286 13.928a.429.429 0 1 0 0-.857.429.429 0 0 0 0 .857M12.656 13.17a.429.429 0 1 1-.858 0 .429.429 0 0 1 .857 0m1.915-.313a.429.429 0 1 1-.857 0 .429.429 0 0 1 .857 0"/><path fill="#2E2720" d="M18 12A6 6 0 1 1 6.54 9.506a.45.45 0 0 0-.086-.514c-.201-.206-.544-.159-.664.102a6.857 6.857 0 1 0 3.523-3.402.41.41 0 0 0-.172.608c.12.18.356.24.558.159a6 6 0 0 1 8.3 5.541"/><path fill="#2E2720" d="M8.272 7.299a.45.45 0 0 0 .107-.6.407.407 0 0 0-.592-.107 7 7 0 0 0-1.02.977.407.407 0 0 0 .03.553c.185.184.489.158.66-.043a6 6 0 0 1 .815-.78"/></g><defs><clipPath id="a"><path fill="#fff" d="M0 0h24v24H0z"/></clipPath></defs></svg>
